icons/Logos/zhihu-fill.svg

<svg viewBox="0 0 24 24" xmlns="http://www.w3.org/2000/svg"><path d="M13.3735 18.897L14.8258 18.8974L15.3039 20.534L17.9085 18.8974H20.9792V5.39517H13.3735V18.897ZM14.9191 6.86099H19.4338V17.4316H17.7018L15.9722 18.5186L15.6573 17.4342L14.9193 17.4318V6.86119L14.9191 6.86099ZM12.0895 11.5733H8.84563C8.95376 9.89154 8.98193 8.3715 8.98193 7.01393H12.1538C12.1538 7.01393 12.2758 5.61365 11.622 5.62954H6.13529C6.35155 4.8152 6.62335 3.97463 6.94873 3.10547C6.94873 3.10547 5.45617 3.10547 4.94787 4.44417C4.73756 4.99634 4.12887 7.12158 3.04481 9.2925C3.40987 9.25278 4.61753 9.21901 5.32879 7.91408C5.45974 7.54861 5.48454 7.50094 5.64723 7.01234H7.43679C7.43679 7.66381 7.36259 11.1635 7.33244 11.5707H4.09237C3.36424 11.5707 3.12755 13.0365 3.12755 13.0365H7.19336C6.92056 16.1312 5.45637 18.7391 2.80078 20.8008C4.07114 21.1639 5.33713 20.7432 5.96268 20.1863C5.96268 20.1863 7.38759 18.8893 8.16889 15.8881L11.5145 19.9189C11.5145 19.9189 12.0052 18.2501 11.4375 17.4369C10.9673 16.8832 9.69796 15.3852 9.15672 14.8422L8.25004 15.5626C8.52045 14.695 8.68314 13.8524 8.7381 13.0381H12.5601C12.5601 13.0381 12.5547 11.5723 12.0895 11.5723V11.5733Z"/></svg>

<svg xmlns="http://www.w3.org/2000/svg" viewBox="0 0 24 24">
    <g>
        <path fill="none" d="M0 0h24v24H0z"/>
        <path fill-rule="nonzero" d="M13.373 18.897h1.452l.478 1.637 2.605-1.637h3.07V5.395h-7.605v13.502zM14.918 6.86h4.515v10.57h-1.732l-1.73 1.087-.314-1.084-.739-.003V6.861zm-2.83 4.712H8.846a70.3 70.3 0 0 0 .136-4.56h3.172s.122-1.4-.532-1.384H6.135c.216-.814.488-1.655.813-2.524 0 0-1.493 0-2 1.339-.211.552-.82 2.677-1.904 4.848.365-.04 1.573-.073 2.284-1.378.131-.366.156-.413.318-.902h1.79c0 .651-.074 4.151-.104 4.558h-3.24c-.729 0-.965 1.466-.965 1.466h4.066C6.92 16.131 5.456 18.74 2.8 20.8c1.27.363 2.536-.057 3.162-.614 0 0 1.425-1.297 2.206-4.298l3.346 4.03s.49-1.668-.077-2.481c-.47-.554-1.74-2.052-2.281-2.595l-.907.72c.27-.867.433-1.71.488-2.524h3.822s-.005-1.466-.47-1.466z"/>
    </g>
</svg>
